!!!OTL: Der Jaeger.
!!!ARE: Europa, Mitteleuropa, Deutschland
!!!SCT: A0436
!!!TXL: @@GMH
!!!YEM: Copyright 1995, estate of Helmut Schaffrath.
**kern	**text
*M4/2	*
*met(c|)	*
*clefC3	*
*k[b-]	*
*F:ion	*
=1	=1
!LO:TX:a:t=jon. F.	!
2ryy	.
{2F	Es
2A	wolt
2B-	ein
=2	=2
2c	jä-
2d	-ger
1c	ja-
=3	=3
*lig	*
2.A	-gen
4B-}	.
*Xlig	*
{2c	vor
*lig	*
1d	je-
=4-	=4-
.	.
2c/	.
*Xlig	*
1B-	-nem
=5	=5
0A	holtʒ;
=6	=6
2r}	.
{2c	Was
2c	bgeg-
2c	-net_im
=7	=7
2c	vff
2d	der
1B-	hey-
=8	=8
1c}	-den?
{1c	drei
=9	=9
1d	frew-
2c	-lein
*lig	*
1B-	hübſch
=10-	=10-
.	.
2A	.
*Xlig	*
1G	vnd
=11	=11
0F/ll}	ſtoltʒ.
==	==
!!!GTL: Jägerlieder und Jägerromanzen
!!!AGN: Romanze, Ballade, Lied, Jaegerlied
!! Gassenhawerlein 1535 No. 7.
!!!ONB: ESAC (Essen Associative Code) Database: ALTDEU
!!!AMT: simple quadruple
!!!AIN: vox
!!!EED: Helmut Schaffrath
!!!EEV: 1.0
!!!RDF**kern: l = terminal long
!!!AMD: Ionian
!!!URL-scan: https://rosdok.uni-rostock.de/mcrviewer/recordIdentifier/rosdok_ppn738218359/iview2/phys_0614.iview2?x=-27.342981878423416&y=1373.8306411495432&scale=0.6340035897852&rotation=0&layout=singlePageLayout&logicalDiv=log_0016
!!!ENC: Anna Maria Matuszewska
!!!EEV: 2024/18/03
*-	*-
